X:171
T:Hommage \`a Philippe Bruneau
C:Lorenzo Picard
Z:robin.beech@mcgill.ca
S:Laurence Beaudry - SPTDQ
M:2/4
L:1/16
K:D
dAFA GBAG | FAEA DDFA | dfed cBAG | FDEG FDFA |
dAFA GBAG | FAEA DDFA | dfed cBAG |1 FABc d3c :|2 FABc d3B |:
AAFA dFAd | fedf a3B | AAFA dFAd | c4 B4 | E2F2 G2A2 | c3c c2B2 |
A2cB AGFE | Dddd B2AF | AAFA dFAd | fedf a3B |
AAFA dFAd | c4B4 | E2F2G2A2 | c3c c2B2 | A2cB AGFE | DDFA d4 :|

